src/assets/icon-20-edit.svg

<?xml version="1.0" encoding="UTF-8"?>
<svg width="20px" height="20px" viewBox="0 0 20 20" version="1.1" xmlns="http://www.w3.org/2000/svg" xmlns:xlink="http://www.w3.org/1999/xlink">
    <g id="Assets" stroke="none" stroke-width="1" fill="none" fill-rule="evenodd">
        <g id="icon-20-edit" fill-rule="nonzero" fill="#27322F">
            <path d="M12.8154637,3.87612384 L15.1247606,6.18542082 L5.1531086,16.1552312 C4.92299499,16.3853264 4.64137853,16.5535005 4.33199887,16.6450576 L2.38118284,17.2274668 C2.33316399,17.2434718 2.28485116,17.25 2.23539776,17.25 C2.10769672,17.25 1.98586322,17.1998373 1.88944527,17.10587 C1.76544978,16.9794048 1.72026081,16.7972942 1.7701835,16.6251053 L2.35482755,14.6687698 C2.4470037,14.3573512 2.61593036,14.0734486 2.84487425,13.8459121 L12.8154637,3.87612384 Z M13.8761664,2.81550628 L14.4628652,2.22885462 C14.7680333,1.9222785 15.1835842,1.75 15.6167893,1.75 C16.0507313,1.75 16.4661865,1.92192481 16.77314,2.22885462 C17.0784665,2.53559 17.25,2.95094785 17.25,3.38431294 C17.25,3.81720999 17.077923,4.23258721 16.7715131,4.53897248 L16.1855188,5.12485861 L13.8761664,2.81550628 Z M8,17 L8,16 L17,16 L17,17 L8,17 Z" id="Combined-Shape"></path>
        </g>
    </g>
</svg>

<svg width="20" height="20" xmlns="http://www.w3.org/2000/svg"><path d="M12.815 3.876l2.31 2.31-9.972 9.97a1.94 1.94 0 0 1-.821.49l-1.95.581a.492.492 0 0 1-.492-.122.489.489 0 0 1-.12-.48l.585-1.956c.092-.312.26-.596.49-.823l9.97-9.97zm1.061-1.06l.587-.587a1.634 1.634 0 0 1 2.309 2.31l-.586.586-2.31-2.31zM8 17v-1h9v1H8z" fill-rule="nonzero" fill="#27322F"/></svg>
